X:1
T:O Tell Me More of Christ
T:O Tell Me More of Christ
T:Peter Philip Bilhorn
T:Eliza Edmunds Hewitt, 1901
T:Public Domain Courtesy of the Cyber Hymnal™
T:Public Domain Courtesy of the Cyber Hymnal™
C:Peter Philip Bilhorn
Z:Public Domain
Z:Courtesy of the Cyber Hymnal™
%%score ( 1 2 ) ( 3 4 )
L:1/8
Q:1/4=145
M:6/4
K:A
V:1 treble 
V:2 treble 
V:3 bass 
V:4 bass 
V:1
!<(! [CE]2 [^B,^D]2 [=B,=D]2!<)! | [A,C]6!<(! [CA]2 [DB]2!<)! [CA]2 | %2
w: 1.~O tell me|more of Christ, my|
w: 2.~O tell me|more of love’s sweet|
w: 3.~O tell me|more! How waves of|
w: 4.~O tell me|more! And I re-|
!<(! [DA]4!<)! [DG]2 [B,D]2!<(! [B,D]2 [A,C]2 | [G,B,]6 [B,D]2!<)! [DG]2 [DF]2 | %4
w: Sav- ior; On this glad|theme dwell o’er and|
w: sto- ry, If you would|cheer and com- fort|
w: sor- row Shall hear His|voice say, “Peace, be|
w: peat- ing The hap- py|news, shall spread the|
!>(! ([^B,F]4!>)! [CE]2) [CE]2 [B,^D]2 [=B,=D]2 | [A,C]6!<(! [EA]2 [GB]2!<)! [=Gc]2 | %6
w: o’er; * His bound- less|grace, His sav- ing|
w: me; * How Je- sus|wept, the King of|
w: still”; * How af- ter|night, bright dawns the|
w: joy; * Come, bless- èd|Lord, Thy work com-|
 [=Ge]4!>(! [Fd]2!>)!!<(! [^B,F]2 [B,^G]2 [B,A]2!<)! | [Ec]6 [DE]2!>(! [DB]3!>)! [DE] | %8
w: fa- vor, His pre- cious|name, O tell me|
w: glo- ry, Those ten- der|tears of sym- pa-|
w: mor- row, To those who|trust His bless- èd|
w: plet- ing, Till songs of|praise our lips em-|
!>(! [CA]6!>)! ||"^Refrain" [^Ec]2 [Ec]2 [Ec]2 | [^Ec]6 [EG]2 [FA]2 [GB]2 | %11
w: more!|||
w: thy.|||
w: will.|||
w: ploy.|||
 [FA]6 [FB]2 [FB]2 [FB]2 | [FB]6!<(! [^DF]2 [EG]2 [FA]2!<)! | [EG]6 [DF]2 [DF]2 [DE]2 | %14
w: |||
w: |||
w: |||
w: |||
 [CA]6 A2 [GB]2 [=Gc]2 | [Fd]6!<(! [^B,F]2 [B,G]2 [B,A]2!<)! | [Ec]6 [DE]2!>(! [DB]3!>)! [DE] | %17
w: |||
w: |||
w: |||
w: |||
 A4- !fermata![CA]2 |] %18
w: |
w: |
w: |
w: |
V:2
 x6 | x12 | x12 | x12 | x12 | x12 | x12 | x12 | x6 || x6 | x12 | x12 | x12 | x12 | x6 A2 x4 | x12 | %16
 x12 | C2 D^B, x2 |] %18
V:3
 [A,,A,]2 [A,,F,]2 [A,,=F,]2 | [A,,E,]6 [A,,E,]2 [G,,E,]2 [A,,E,]2 | %2
w: ~ ~ ~|~ ~ ~ ~|
 [B,,E,]4 [B,,E,]2 [E,G,]2 [E,G,]2 E,2 | E,6 [E,G,]2 [E,B,]2 [E,G,]2 | %4
w: ~ ~ ~ ~ ~|~ ~ ~ ~|
 ([^D,A,]4 [E,A,]2) [A,,A,]2 [A,,F,]2 [A,,=F,]2 | [A,,E,]6 [A,C]2 [E,D]2 (EA,) | %6
w: ~ * ~ ~ ~|~ ~ ~ ~ *|
 [C,A,]4 [D,A,]2 [^D,A,]2 [D,A,]2 [D,A,]2 | [E,A,]6 [E,G,]2 [E,G,]3 [E,G,] | [A,,A,]6 || %9
w: ~ ~ ~ ~ ~|~ ~ ~ ~|~|
 [C,G,]2 [C,G,]2 [C,G,]2 | [C,G,]6 [C,C]2 [C,C]2 [C,C]2 | [F,C]6 [B,^D]2 [B,D]2 [B,D]2 | %12
w: O tell me|more! So much I|need His power to|
 [B,^D]6 [B,,B,]2 [B,,B,]2 [B,,B,]2 | [E,B,]6 [E,G,]2 [E,G,]2 [E,G,]2 | %14
w: keep, His hand to|lead; O tell me|
 [A,,A,]6 [A,C]2 [E,D]2 (EA,) | [D,A,]6 [^D,A,]2 [D,A,]2 [D,A,]2 | [E,A,]6 [E,G,]2 [E,G,]3 [E,G,] | %17
w: more of Him I *|love, Un- til I|see His face a-|
 A,2 F,=F, !fermata![A,,E,]2 |] %18
w: bove. * * *|
V:4
 x6 | x12 | x10 E,2 | E,6 x6 | x12 | x10 A,,2 | x12 | x12 | x6 || x6 | x12 | x12 | x12 | x12 | %14
 x10 A,,2 | x12 | x12 | A,,4- x2 |] %18

